X:1
T:A Song of Wisdom
T:Charles Villiers Stanford (1852-1924) Opus 113, No. 6
T:Ecclesiasticus 24
T:A Song of Wisdom
T:Copyright © 2013 by the Choral Public Domain Library (http://www.cpdl.org) Typeset by Rufus Brodersen. Edition may be freely distributed, performed, or recorded.
T:Copyright © 2013 by the Choral Public Domain Library (http://www.cpdl.org) Typeset by Rufus Brodersen. Edition may be freely distributed, performed, or recorded.
T:Copyright © 2013 by the Choral Public Domain Library (http://www.cpdl.org) Typeset by Rufus Brodersen. Edition may be freely distributed, performed, or recorded.
T:Copyright © 2013 by the Choral Public Domain Library (http://www.cpdl.org) Typeset by Rufus Brodersen. Edition may be freely distributed, performed, or recorded.
T:Copyright © 2013 by the Choral Public Domain Library (http://www.cpdl.org) Typeset by Rufus Brodersen. Edition may be freely distributed, performed, or recorded.
T:Copyright © 2013 by the Choral Public Domain Library (http://www.cpdl.org) Typeset by Rufus Brodersen. Edition may be freely distributed, performed, or recorded.
T:Copyright © 2013 by the Choral Public Domain Library (http://www.cpdl.org) Typeset by Rufus Brodersen. Edition may be freely distributed, performed, or recorded.
T:Copyright © 2013 by the Choral Public Domain Library (http://www.cpdl.org) Typeset by Rufus Brodersen. Edition may be freely distributed, performed, or recorded.
T:Copyright © 2013 by the Choral Public Domain Library (http://www.cpdl.org) Typeset by Rufus Brodersen. Edition may be freely distributed, performed, or recorded.
T:Copyright © 2013 by the Choral Public Domain Library (http://www.cpdl.org) Typeset by Rufus Brodersen. Edition may be freely distributed, performed, or recorded.
T:Copyright © 2013 by the Choral Public Domain Library (http://www.cpdl.org) Typeset by Rufus Brodersen. Edition may be freely distributed, performed, or recorded.
T:Copyright © 2013 by the Choral Public Domain Library (http://www.cpdl.org) Typeset by Rufus Brodersen. Edition may be freely distributed, performed, or recorded.
T:Copyright © 2013 by the Choral Public Domain Library (http://www.cpdl.org) Typeset by Rufus Brodersen. Edition may be freely distributed, performed, or recorded.
T:Copyright © 2013 by the Choral Public Domain Library (http://www.cpdl.org) Typeset by Rufus Brodersen. Edition may be freely distributed, performed, or recorded.
C:Charles Villiers Stanford (1852-1924)
C:Opus 113, No. 6
Z:Ecclesiasticus 24
Z:Copyright © 2013 by the Choral Public Domain Library (http://www.cpdl.org)
Z:Typeset by Rufus Brodersen. Edition may be freely distributed, performed, or recorded.
%%score ( 1 2 ) { ( 3 5 ) | ( 4 6 ) } 7
L:1/8
Q:1/4=80
M:4/4
K:Eb
V:1 treble nm="Voice" snm="Voice"
V:2 treble 
V:3 treble nm="Organ" snm="Org."
V:5 treble 
V:4 bass 
V:6 bass 
V:7 bass nm="Pedals" snm="Ped."
V:1
"^Andante moderato" z8 | z8 | z8 | z4 z2!mf! EG | B2 c>d e2 de | !>!c2 !>!B2 z2 (EF) | %6
w: |||I came|forth from the mouth of the|Most High, and _|
 G2 B>B c2 Bc | G4 z2 G2 |!<(! A3 A!<)! (_d2 f2) | %9
w: co- ver'd the earth as a|mist. I|dwelt in high _|
"^Note: This is the last of six Bible Songs bymCharles Villiers Stanford, opus 113, for solo voice or Unison voices.All of the Bible Songs are intended to be followed by a short four-part Anthem. In this case it would be O for a Closer Walk." f2 e2 z2!f! c>c | %10
w: pla- ces, and my|
 c2 _d2 c2 f2 | g c3 =d3 d | =e8 | z4 z2 z!p! c | _d3 e f2 ef | c2 B>c F3 F | %16
w: throne is in the|pil- lar of the|cloud.|A-|lone I com- passed the|cir- cuit of heav'n, and|
!<(! A2 Bc!<)! _d>A AB | E4 z2!mf! E>E | c2 =Bc d4- | d2 G"^cresc."G (e2 d)e | f6!f! BB | %21
w: walk'd in the depth of the a-|byss. In the|waves of the sea,|_ and in all _ the|earth, and in|
 _g2 f2 g2 e_c | B2 _d2 z2 d2 | _g6 e_c | B2 _d2 z2!p! (_GA) |"^rit." (B2 c2) B2 e2 | (B2 c2) G4 | %27
w: ev- 'ry peo- ple and|na- tion, I|got a pos-|ses- sion, with _|all _ these I|sought _ rest;|
 z2 B6 | z2 E6 |"^a tempo" z4 z!mf! EEF | G2 ^FG =Ac =BA | d>=B G4 G=A | =B>B =AB ce dc | %33
w: rest,|rest,|And I took|root in a peo- ple that was|glo- ri- fied, in the|por- tion of the Lord's _ own in-|
 f>d =B2 z G Bd | g>=e ed c2 =Ac | =e>d c2- cc de | =A=B cA d2 d=e | =e2 d2"^più"!f! z G =Bd | %38
w: he- ri- tance. I was ex-|alt- ed like a ce- dar in|Li- ban- us, _ and as a|cyp- ress on the moun- tains of|Her- mon. I was ex-|
 g>=e ed c=A cd | =e2 e2- ee!>(! d!>)!c | =e2 ^G=A (=B4- | B2 ^c2) ^G3 ^F | =E4 z2 =AA | %43
w: alt- ed like a palm tree on the|sea shore, _ and as a|fair o- live tree|_ _ in the|plain. And my|
 _B2 =AB"^cresc." d2 cd | B2 =AF c2 cc | e2 de g3 e | e2 dB f4- | f2 B2 z4 |!f! (b2 g4) f>d | %49
w: branch- es are branch- es of|glo- ry and grace, and my|flow'rs are the fruit of|glo- ry and rich-|* es.|Come _ un- to|
 B4 cc de | g6 fd | B2 z B G2 B2 | !>!e8 | (!>!e2 B2) A3 F | %54
w: me, ye that are de-|si- rous of|me, and be ye|filled,|filled _ with my|
[M:6/8]"^Andante con moto"[Q:1/4=80] E3 z2 z | z2 z!p! FGA | B2 A/G/ cFA | GB z z2 B | GBG e>cA | %59
w: fruits.|And I came|out as a stream from a|ri- ver, I|said, I will wa- ter my|
 GB z z GG | c>cd e3- | e/c/AB (Gc)=A | F3- F z z | z2 F B2 z/ B/ |"^cresc." B2- B/B/ (B_c)_d | %65
w: gar- den and will|wa- ter a- bun-|* dant- ly my gar- * den|bed; _|And lo, my|stream _ be- came _ a|
 _d _c2 z =BB | =B>GB =d2 B |!f! g6- | g3 z ^cc | =e2 =B ^c>=Ac | =e3- e^cc | (=e3!<)!!<(! ^f3 | %72
w: ri- ver, and my|ri- ver be- came a|sea.|_ For my|thoughts are fill'd from the|sea, _ and my|coun- *|
 =g3-) g2 _e | B3 c3 | (G3 F3) ||[M:4/4]"^Tempo I" E6 z2 | z8 | z8 | z4 z2!f! GG | c2 c>d =e2 =Ac | %80
w: * * sels|from the|great _|deep.|||I came|forth from the mouth of the|
 d4 g4- | g2 z2 _e3 c |"^rit." B2 c2 B2 e2 | g ^c3 f3 g | e8- | e4 z4 | z8 |] %87
w: Most High,|_ And my|throne is in the|pil- lar of the|cloud.|_||
V:2
 x8 | x8 | x8 | x8 | x8 | x8 | x8 | x8 | x8 | x8 | x8 | x8 | x8 | x8 | x8 | x8 | x8 | x8 | x8 | %19
 x8 | x8 | x8 | x8 | x8 | x8 | x8 | x8 | x8 | x8 | x8 | x8 | x8 | x8 | x8 | x8 | x8 | x8 | x8 | %38
 x8 | x8 | x8 | x8 | x8 | x8 | x8 | x8 | x8 | x8 | g6 x2 | x8 | x8 | x8 | x8 | x8 |[M:6/8] x6 | %55
 x6 | x6 | x6 | x6 | x6 | x6 | x6 | x6 | x6 | x6 | x6 | x6 | x6 | x6 | x6 | x6 | x6 | x6 | x6 | %74
 x6 ||[M:4/4] x8 | x8 | x8 | x8 | x8 | x8 | x8 | x8 | x8 | x8 | x8 | x8 |] %87
V:3
!p!!<(! ([EB]4!<)!!>)!!>(! [Dc]4) |!<(! ([E-B]4!<)!!>)!!>(! [EAe]4) | ([E-B]4 [C-E-c]4 | [EG]8) | %4
!p! B4 G4- | GF [DG]2 z2 ([CE]2 | D2 E2- [CE]2 [B,F][CE] | _D2 C2) z2 ([DG]2 | %8
 A2 _G2"^cresc." F2- [F=G]2) | ([_DFG]2 [CEA]2)!mf! [FA]4 | [C=EG]2 [_DF]2 [C-EG]2 [CF-c]2 | %11
 [B,FB]2 [CBc]2 [A,-CA]2 [A,=B,DF]2 | [=E,G,C=E]8 | z2 G2!>)!!>(! c4 |!p! (c2 B2- BAGA | %15
 GAFG E_DCB,) | (A,8 | B,2) (EF GABE) | ([CA]E[=DA]E DFd=B | AG) CD EG[D=B][Cc] | FAfd _cB (EF | %21
 _GBdA G_cec | B_GEF GE-[EG][FA]) | (BAB_d d_G_cA | _GBE=F!p! G2) GA | %25
 [EB]2 [=D=c]2 [E-B]2 [EAe]2 | [E-B]2 [CEc]2 [EG]4 |!pp! z4 [EG]4 | z4 [B,E]4 | z8 | %30
 (3z (B,C (3DCB,) (3z (CE (3^F"^sim."EC) | (3(=B,DB, G6-) | (G4 (3CEG (3ECE | (3=B,DB, G4) [G=B]2 | %34
 (3([Gc]=EC (3ECG) (3(FCF (3=AGF) | (3([Gc]=EC (3ECG ^G4) | (=AG GA =B2 A2 | G3 =A =B4) | c8- | %39
 c2 =B2 =A4 |!p! (3(^G=E^F (3GFE (3^DE^C (3DEF | (3^G=E^D (3E^C=A G3 ^F | %42
 =E4-) E/E/=F/=G/ =A/G/F/E/ |"^cresc." G2 (D/G/B/G/- [GBd]2) (C/G/B/G/ | %44
 [CFB]2) (C/F/=A/F/- [CFc]2) (C/F/A/F/ | [EGc]2) (E/G/c/G/- [EGce]2) (E/G/c/G/ | %46
 [F-B-e]2) [FBd]/(B/F/B/ [F-d]2) [Fc]/(=A/F/A/ | c/_A/F/A/ B/A/F/A/ c/A/D/A/ B/A/D/A/) | %48
!f! [EGB]4 [DAc]4 | [E-GB]4 [EFAe]4 | [EGB]4 [C-DFc]4 | [EG]4 [_DFB]4 | B4 A4 | [B,EG]4 [A,B,F]4 | %54
[M:6/8]!p! [G,B,E]3 (FGF | [G,B,E]3) (FGF | [G,B,E]3) (FAF | [G,EG]3) (FAF | [G,EG]3) (AcA | %59
 [B,EG]3) B_dB | [C-Ac-]3 [C-E-c]3 | A3 G3 | [B,DF]3 ([=A,F]c[CE=A] | [B,F]3) (B,/D/F/D/F/B/) | %64
"^cresc." (B/_G/E/G/B/G/ _D/G/B/G/D/G/ | ^A/^F/=D/F/=B/F/ D/F/B/F/D/F/) | %66
 (=B/G/D/G/B/G/ D/G/B/G/D/G/) | (c3 ^A3 | =B3 ^c3) | (=e/=B/^G/=E/G/B/) (^c/=A/^F/^D/F/A/) | %70
 (=e/=B/^G/=E/G/B/) (^c/=A/^F/E/F/A/) | (=e/=B/^G/=E/G/B/) (^c/=A/^F/^D/F/A/) | %72
 (=d/=B/=F/=D/F/B/) (_e/=c/=G/c/G/_E/-) | _B3 c3 | [CEG]3 [DF]3 ||[M:4/4]!f! B4 [Ac]4 | %76
 [E-GB]4 [EFAe]4 | [EGB]4 [D-F-c]4 | [DFG]6 z2 |!mf! G4 =A4 | [DG-=B]4 [CGc]4 | %81
!<(! [CGc]4!<)! [C_EG]4 | B8 | [E-Gce-]4 [Ee]2 [Dd]2 | z4!<(! [EFAe]4 | [EG]4!<)! [DFc]4 | %86
!ff! !fermata![GBeg]8 |] %87
V:4
 [G,B,]4 [F,A,]4 | [G,B,]4 [C,F,A,]4 | [G,B,]4 [E,-F,]4 | [E,G,]8 | E2 D2 C2 B,2 | %5
 A,2 B,2 z2 G,2- | G,2 [B,,G,-]2 [G,,G,]2 [B,,F,][C,E,] | F,2 =E,2 z2 B,2 | A,6 =G,2 | %9
 G,2 A,2 [F,A,]4 | [=E,G,]2 [F,A,]2 [E,G,]2 [C,F,-]2 | F,2 =E,2 F,4 | C,,2 =E,,G,, C,=E,G,C | %13
 =E2 z2 z4 | z8 | x4 CB,F,_D, | [C,F,]4 [B,,_D,]4- | [B,,D,E,]4 E,F,G,B, | E,A,F,A, [F,=B,]4- | %19
 [F,B,]2 =A,=B, CG,F,E, | [!courtesy!_A,D]6 =CD | EB,A,_C E2 CE, | _G,B, _D4 _C2 | %23
 _D_CDB, _G,2 A,C | B,_G, _D,2- D,G, _C2 | B,2 A,2 B,2 [F,A,]2 | [G,B,]2 [E,-F,]2 [E,G,]4 | %27
 z4 [E,G,]4 | z4 [B,,E,]4 |!mf! z2 E,2 D,2 C,2 | (3z D,C, (3=B,,C,D, [E,^F,=A,]4 | %31
 [D,G,]2 =F,2 (3E,G,E, (3C,E,C, | (3D,E,F, (3:2:2G,2- [F,G,-] [E,-G,]2 [E,G,=A,]2 | %33
 [D,F,]4 (3G,=A,G, (3D,=B,,G, | (3CG,=E, (3G,E,=B, (3=A,F,A, (3CB,A, | %35
 (3CG,=E, (3G,E,C, (3E,^G,E, (3G,E,G, | (3C=B,D (3C=G,C (3DB,G, (3=A,^F,D, | %37
 (3=A,G,D, (3G,D,A, (3=B,A,G, (3D,G,B, | (3CG,=E, (3G,E,=B, (3=A,F,A, (3CB,A, | %39
 (3C=A,=E, (3^G,E,=B, (3E,A,E, (3A,^F,A, | (3=B,^G,=A, (3B,A,G, (3^F,G,=E, (3F,E,^D, | %41
 (3=E,^G,=B, (3=A,E,^C, ^D,4 | (3[=E,^G,]=A,=B, (3E,G,B, E,2- [E,=G,A,]2 | %43
 _B,/G,/D,/G,/ B,2- B,/G,/D,/G,/ B,2- | B,/F,/C,/F,/ =A,2- A,/F,/C,/F,/ A,2 | %45
 C/G,/E,/G,/ C2- C/G,/E,/G,/ C2 | E/B,/F,/B,/ D2 D/F,/E,/F,/ C2- | C2 B,2 C2 B,2- | %48
 B,/G,/E,/B,,/ E,/B,,/E,/G,/ C/A,/=F,/D,/ F,/D,/F,/A,/ | %49
 G,/E,/B,,/E,/ G,/E,/G,/B,/ F,/E,/C,/E,/ F,/E,/F,/A,/ | %50
 G,/E,/B,,/E,/ G,/E,/G,/B,/ F,/D,/C,/D,/ F,/D,/F,/C/ | %51
 G,/E,/C,/E,/ B,,/E,/G,/B,/ G,/E,/B,,/E,/ G,/E,/G,/B,/ | B,4 A,4 | [B,,E,G,]4 D,4 | %54
[M:6/8] G,/A,/B,/G,/C/B,/ A,/F,/D,/E,/F,/B,,/ | G,/A,/B,/G,/C/B,/ A,/F,/D,/E,/F,/B,,/ | %56
 G,/A,/B,/G,/C/B,/ A,/F,/D,/E,/F,/B,,/ | G,/A,/B,/G,/C/B,/ A,/F,/D,/E,/F,/B,,/ | %58
 G,/A,/B,/G,/C/B,/ C/A,/F,/G,/A,/C,/ | G,/A,/B,/G,/C/B,/ _D/B,/G,/A,/B,/E,/ | %60
 C/A,/E,/C,/E,/A,/ C/G,/E,/C,/E,/G,/ | C/A,/E,/C,/F,/A,/ G,/E,/C,/E,/G,/=A,/ | %62
 B,/F,/D,/F,/B,/D/ E/C/=A,/B,/C/A,/ | B,/F,/D,/F,/B,/D/- D/B,/F,/B,/F,/D,/ | %64
 E,/_G,/B,/G,/E,/G,/ B,/G,/_D,/G,/B,/G,/ | =D,/^F,/=B,/F,/D,/F,/ B,/F,/D,/F,/B,/F,/ | %66
 D,/G,/=B,/G,/D,/G,/ B,/G,/D,/G,/B,/G,/ | C/G,/=E,/G,/C,/E,/ G,/E,/C/G,/E,/G,/ | %68
 =B,/G,/=E,/G,/_B,,/E,/ ^C/G,/E,/G,/^C,/E,/ | [=E,^G,=B,]3 [^D,=A,^C]3 | %70
 [=E,-^G,=B,]3 [E,^F,=A,^C=E]3 | [=E,^G,=B,]3 [^D,^F,^C]3 | [=D,=F,=B,=D]3 [_E,-G,-=C_E]3 | %73
 _B,3 C3 | [A,B,]6 ||[M:4/4] [G,B,]4 [A,C]4 | [E,-G,B,]4 [E,F,A,]4 | [E,G,B,]4 [D,F,C-]4 | %78
 C4 =B,2 z2 | z2 =B,2 =A,4 | G,4- G,4 | [E,G,]4 [C,_E,G,]4 | B,8 | x4 [F,A,B,]4 | z4 [E,F,A,]4 | %85
 [E,G,B,]4 [D,F,C]4 | !fermata![B,,E,G,B,]8 |] %87
V:5
 x8 | x8 | x8 | C4 B,4 | G2 F2 E2 D2 | C2 x2 x4 | B,4 x4 | B,4 x4 | C4 _D4 | x4 _D2 C2 | x8 | x8 | %12
 x8 | x8 | x8 | (EF_DE x4 | x8 | x4 _D4 | x4 D4- | D2 x2 x4 | F6 x2 | _G2 F2 G4 | _D2 x2 x4 | %23
 _F4 E4 | _D6 E2- | x8 | x4 C2 B,2) | x4 (C2 B,2) | x4 (A,2 G,2) | x8 | x8 | %31
 x2 (3z =B,D C2- [=A,C]2 | (3=B,CD (3FED x4 | x2 (3z =B,D- D4 | x8 | x4 (3z C=E (3CEC | x2 G4 D2 | %37
 [DF]6 [DG]2 | (3G=EC (3ECG (3FCF (3=AGF | (3=A=EC (3E=B,^G (3z CE!>(! (3CE!>)!C | x8 | %41
 x4 (3z =B,^C x2 | x8 | x4 x2 C2- | x2 C2- x4 | x2 E2- x4 | x8 | x8 | x8 | x8 | x8 | C2 B,2 x4 | %52
 [_CE]8 | x8 |[M:6/8] x3 [A,-C]2 [A,D] | x3 [A,-C]2 [A,D] | x3 [A,-C]2 [A,D] | x3 [A,-C]2 [A,D] | %58
 x3 [C-E]2 [CD] | x3 [FG-]2 [_DG] | x6 | [CE]2 [B,-=D] [B,E-]2 [=A,E] | x6 | x6 | x6 | x6 | x6 | %67
 [=EG]6- | [EG]6 | x6 | x6 | x6 | x6 | [EG]6 | x6 ||[M:4/4] [EG]6 D2 | x8 | x8 | x8 | [C=E]8 | x8 | %81
 x8 | [DF]2 [CE]2 [DA]2 [EG]2 | x4 B4 | x8 | x8 | x8 |] %87
V:6
 x8 | x8 | x8 | C,4 B,,4 | x8 | x8 | x8 | x8 | x8 | x8 | x8 | B,,4 A,,2 D,2 | x8 | x8 | x8 | x8 | %16
 x8 | x8 | x8 | x8 | x8 | x8 | x8 | x8 | x8 | x8 | x4 C,2 B,,2 | x4 C,2 B,,2 | x8 | x8 | x8 | x8 | %32
 x8 | x8 | x8 | x8 | x8 | x8 | x8 | x8 | x8 | x4 x2 (3=A,=B,A, | x8 | x8 | x8 | x8 | x4 x E,- E,2 | %47
 [D,-F,]4 [D,^F,]4 | x8 | x8 | x8 | x8 | [_C,E,]8 | x8 |[M:6/8] x6 | x6 | x6 | x6 | x6 | x6 | x6 | %61
 x6 | x6 | x6 | x6 | x6 | x6 | x6 | x6 | x6 | x6 | x6 | x6 | [E,G,]6 | x6 ||[M:4/4] E,6 D,2 | x8 | %77
 x8 | [D,F,]6 z2 | x8 | G,2 F,4 =E,2- | x8 | [D,F,]2 [C,E,]2 [D,A,]2 [E,G,]2 | [E,-G,C]4 E,2 D,2 | %84
 x8 | x8 | x8 |] %87
V:7
 z8 | z8 | (B,,4 A,,4 | E,,8) | z8 | z4 z2 (C,2 | G,,2 E,,2 C,,2 D,,E,, | G,,2 C,2) z2 (=E,2 | %8
 F,2 _E,2 _D,2 B,,2 | C,4) F,,4 | C,2 F,,2 C,2 A,,2 | G,,4 F,,4 | C,,8 | z8 | z8 | z8 | %16
 A,,4 _F,,4 | G,,4 E,,4 | A,,4 G,,4- | G,,2 (G,2 C,4 | B,,6) (B,2 | E,4 _C,4 | %22
 _D,2 _C,2 B,,2 A,,2 | _G,,4 _C,4 | D,2 _C,2 B,,2) (A,,2 | =G,,2 F,,2 G,,2 =C,2 | B,,2 A,,2 E,,4) | %27
 z4 E,,4 | z4 E,,4 | z2 (E,2 D,2 C,2) | G,,8- | G,,8- | G,,8 | G,,4 F,4 | =E,4 F,4 | =E,8 | %36
 (F,2 =E,2 D,2 C,2 | =B,,3 =A,, G,,2 F,,2 | =E,,4) (F,,4 | =E,,2 D,,2 C,,2 =A,,2 | =B,,4) (=A,,4 | %41
 ^G,,2 ^F,,2 ^B,,4) | (=E,2 D,2 ^C,4) | D,4 =E,4 | F,4 =A,4 | C4 =A,4 | B,4 =A,4 | _A,4 B,,4 | %48
 E,8- | E,4 C,4 | B,,4 A,,4 | E,8 | A,,4 F,,4 | B,,8 |[M:6/8] E,,3- E,, z z | E,,3- E,, z z | %56
 E,,3- E,, z z | E,,3- E,, z z | E,,3- E,, z z | E,,3- E,, z z | A,,3 G,,3 | F,,3 E,,3 | %62
 D,,B,,D,, F,,3 | (D,,F,,D,, B,,2 A,, | _G,,3 _F,,3 | =D,,3) (=B,,3 | G,,3 =F,,3 | =E,,3) (C,3 | %68
 =B,,3 ^A,,3 | =B,,6-) | B,,6- | B,,3 =A,,3 | G,,3- G,,2 =A,, | B,,6- | B,,6 ||[M:4/4] E,,8- | %76
 E,,4 C,4 | B,,4 A,,4 | G,,6 z2 | z8 | z8 | z4 =A,,4 | _A,,2 G,,2 F,,2 E,,2 | C,,2 A,,2 B,,4 | %84
 z4 C,4 | B,,4 A,,4 | !fermata!E,,8 |] %87

